X: 40501
T: Tommy Coen's
R: reel
M: 4/4
K: Adorian
G|A2eA BAeA|G2dG eGdG|A2eA BAeA|GABd egdB|
BAeA BAeA|G2dG eGdG|GEDE GABd|egdB A3:|
g|ea~a2 eaad|gabg dgbg|eaa2 gaba|gedB GABd|
ea~a2 eaad|gabg dgbg|edef g2ba|gedB A3:|

